packages/core/src/svgs/tokens/branded/QNT.svg

<svg width="24" height="24" viewBox="0 0 24 24" fill="none" xmlns="http://www.w3.org/2000/svg">
<path d="M8.63003 2.57191C8.10411 2.75927 7.58566 2.96703 7.07589 3.1947C7.0416 3.22327 7.47586 3.79464 8.04723 4.45173C8.6186 5.11452 9.73281 6.42868 10.5327 7.37716C11.0123 7.98595 11.5294 8.56416 12.0811 9.10844C12.2126 9.10844 15.4065 7.16576 15.4065 7.08006C15.4065 6.9315 13.4753 4.58885 12.5325 3.59466C11.3727 2.37763 10.847 1.98339 10.4127 2.00053C10.2528 2.00624 9.45283 2.26336 8.63003 2.57191ZM16.6292 4.08604C16.6064 4.13176 16.4807 4.526 16.3493 4.96596C16.2237 5.40021 15.978 6.06872 15.8122 6.44582C15.6408 6.81721 15.5493 7.15433 15.6008 7.18861L17.3664 8.3085L19.0347 9.37122L19.1034 10.3826C19.1434 10.9368 19.2005 11.8682 19.229 12.4509L19.2862 13.5138L17.8578 14.6622C16.9607 15.3821 16.3607 15.7935 16.2579 15.7593C16.1607 15.7306 15.3323 15.3651 14.4124 14.9479C13.7935 14.6538 13.1646 14.3813 12.5268 14.1308C12.344 14.0908 12.0926 14.5479 10.567 17.6504C9.93372 18.8805 9.34858 20.1346 8.81288 21.4101C8.81288 21.6845 9.21283 21.8273 10.2813 21.9472C11.7041 22.1072 12.2811 21.9244 12.9496 21.1073C13.2982 20.6788 15.498 17.3534 16.1322 16.2906C16.4179 15.8163 16.3607 15.7593 17.0978 17.2277C17.8006 18.6447 17.972 18.879 18.2977 18.879C18.6062 18.879 18.9719 18.519 19.7261 17.4962C20.1661 16.9077 20.2176 16.7763 20.2176 16.2792C20.2176 15.4793 20.0461 14.6565 19.7489 14.0508C19.6119 13.7595 19.349 13.5308 19.3662 13.5138C19.3834 13.4966 19.8233 13.4338 20.1661 13.3995C21.1488 13.2853 21.1945 13.2053 21.1145 11.8167C20.9888 9.64559 20.9546 9.5884 19.8119 9.46267C19.5776 9.45188 19.3464 9.40561 19.1262 9.32562C19.1034 9.29122 19.1547 8.99988 19.2404 8.67991C19.38 8.08728 19.3804 7.47038 19.2416 6.87758C19.1029 6.28479 18.8286 5.73217 18.4405 5.26308C18.1435 4.89739 16.9549 4.00605 16.7607 4.00605C16.734 4.00822 16.7083 4.01658 16.6855 4.03048C16.6627 4.04437 16.6435 4.06339 16.6292 4.08604ZM6.93304 9.49694C3.40766 9.74265 3.20768 9.77118 3.02485 9.98836C2.842 10.1998 2.83057 10.3426 2.89343 11.5882C2.98485 13.4908 2.95056 13.6795 3.27625 13.8965C3.43052 13.9995 4.04189 13.9995 6.81877 13.9995C9.68708 13.9995 12.1611 14.0394 12.304 13.8965C12.3554 13.8395 12.0869 9.8969 11.9954 9.45121C11.9383 9.14844 11.9041 9.14844 6.93304 9.49694Z" fill="black"/>
</svg>

<svg xmlns="http://www.w3.org/2000/svg" width="24" height="24" fill="none" viewBox="0 0 24 24">
    <path fill="#000" d="M8.63 2.572q-.789.28-1.554.623c-.034.028.4.6.971 1.257a451 451 0 0 1 2.486 2.925q.72.914 1.548 1.731c.132 0 3.326-1.942 3.326-2.028 0-.149-1.932-2.491-2.874-3.485-1.16-1.217-1.686-1.612-2.12-1.594-.16.005-.96.262-1.783.57m8 1.514c-.024.046-.15.44-.28.88a14 14 0 0 1-.538 1.48c-.171.371-.263.708-.211.743l1.765 1.12 1.669 1.062.068 1.012c.04.554.098 1.485.126 2.068l.057 1.063-1.428 1.148c-.897.72-1.497 1.131-1.6 1.097-.097-.028-.926-.394-1.846-.811a30 30 0 0 0-1.885-.817c-.183-.04-.434.417-1.96 3.52a53 53 0 0 0-1.754 3.76c0 .273.4.416 1.468.536 1.423.16 2-.023 2.669-.84.348-.428 2.548-3.754 3.182-4.816.286-.475.229-.532.966.937.703 1.417.874 1.651 1.2 1.651.308 0 .674-.36 1.428-1.383.44-.588.492-.72.492-1.217 0-.8-.172-1.623-.47-2.228-.136-.292-.399-.52-.382-.537s.457-.08.8-.114c.983-.115 1.029-.195.948-1.583-.125-2.171-.16-2.229-1.302-2.354a2.3 2.3 0 0 1-.686-.137c-.023-.035.029-.326.114-.646a3.94 3.94 0 0 0-.8-3.417c-.297-.366-1.485-1.257-1.68-1.257a.17.17 0 0 0-.13.08m-9.697 5.41c-3.525.247-3.725.275-3.908.492-.183.212-.194.355-.132 1.6.092 1.903.058 2.092.383 2.309.155.102.766.102 3.543.102 2.868 0 5.342.04 5.485-.103.051-.057-.217-4-.309-4.445-.057-.303-.09-.303-5.062.046"/>
</svg>
